images/marker-poi-objective-b.svg

<?xml version="1.0" encoding="utf-8"?>
<!-- Generator: Adobe Illustrator 21.0.1, SVG Export Plug-In . SVG Version: 6.00 Build 0)  -->
<svg version="1.1" id="Layer_1" xmlns="http://www.w3.org/2000/svg" xmlns:xlink="http://www.w3.org/1999/xlink" x="0px" y="0px"
	 viewBox="0 0 64 64" style="enable-background:new 0 0 64 64;" xml:space="preserve">
<style type="text/css">
	.st0{fill:#555556;}
	.st1{fill:#C8CAC9;}
	.st2{display:none;fill:#9CE4FA;}
	.st3{display:none;fill:#C8CAC9;}
</style>
<g>
	<polygon class="st0" points="54.316,19.061 54.269,44.857 31.953,57.795 9.684,44.938 9.73,19.143 32.047,6.204 	"/>
	<path class="st1" d="M31.956,60.9L6.994,46.488l0.052-28.895L32.044,3.1l24.962,14.412l-0.054,28.894L31.956,60.9z M12.373,43.389
		L31.95,54.69l19.634-11.383l0.041-22.696L32.05,9.309L12.415,20.692L12.373,43.389z"/>
</g>
<path class="st2" d="M32,60.9L6.394,46.45v-28.9L32,3.1l25.605,14.45v28.9L32,60.9z M10.394,44.193L32,56.385l21.605-12.192V19.807
	L32,7.615L10.394,19.807V44.193z"/>
<path class="st3" d="M40.243,46.817l4.807-1.578l-9.639-28.058H28.62l-9.67,28.056l4.805,1.583l3.165-9.182h10.17L40.243,46.817z
	 M28.628,32.681l3.386-9.822l3.374,9.822H28.628z"/>
<path class="st1" d="M37.754,46.547H22.031V17.453h15.051l3.855,3.768v8.897l-1.059,1.034l2.09,2.042v9.233L37.754,46.547z
	 M27.031,41.66h8.652l1.285-1.257v-5.184l-1.285-1.257h-8.652V41.66z M27.031,29.075h7.902l1.004-0.982v-4.848l-0.926-0.905h-7.98
	V29.075z"/>
<polygon class="st3" points="37.664,46.727 27.264,46.727 21.784,41.247 21.784,22.582 27.092,17.273 37.976,17.273 42.208,21.506 
	38.673,25.041 35.905,22.273 29.164,22.273 26.784,24.653 26.784,39.175 29.335,41.727 35.592,41.727 38.681,38.639 42.216,42.174 
	"/>
</svg>

<svg xmlns="http://www.w3.org/2000/svg" viewBox="0 0 64 64" enable-background="new 0 0 64 64"><style type="text/css">.st0{fill:#555556;} .st1{fill:#C8CAC9;}</style><path class="st0" d="M54.3 19.1v25.8l-22.3 12.9-22.3-12.9v-25.8l22.3-12.9z"/><path class="st1" d="M32 60.9l-25-14.4v-28.9l25-14.5 25 14.4v28.9l-25 14.5zm-19.6-17.5l19.6 11.3 19.6-11.4v-22.7l-19.6-11.3-19.6 11.4v22.7zM37.8 46.5h-15.8v-29h15.1l3.9 3.8v8.9l-1.1 1 2.1 2v9.2l-4.2 4.1zm-10.8-4.8h8.7l1.3-1.3v-5.2l-1.3-1.2h-8.7v7.7zm0-12.6h7.9l1-1v-4.8l-.9-1h-8v6.8z"/></svg>
